X: 157
T: The Boys in the Gap
N:"With spirit" "collected by F. O'Neill"
B:O'Neill's 157
Z:Transcribed by henrik.norbeck@mailbox.swipnet.se
M:6/8
L:1/8
K:Gm
D|G>AG B>cB|(A<F)F F2 A|G>AG g>ag|(f<d)d d2 =e|
fgf f_ed|cdB ABc|d>ed d2 c|(B<G)G G2||
d|g>ag gab|(a<f)f f2 a|g=e^f gab|afd d2 =e|
fgf f_ed|cdB ABc|d>ed d2 c|(B<G)G G2||


